resources/svg/minor-calendar.svg

<svg xmlns="http://www.w3.org/2000/svg" viewBox="0 0 20 20" fill="currentColor"><path fill-rule="evenodd" d="M7 2C7.55228 2 8 2.44772 8 3V4H12V3C12 2.44772 12.4477 2 13 2C13.5523 2 14 2.44772 14 3V4H15C16.1046 4 17 4.89543 17 6V15C17 16.1046 16.1046 17 15 17H5C3.89543 17 3 16.1046 3 15V6C3 4.89543 3.89543 4 5 4H6V3C6 2.44772 6.44772 2 7 2ZM5 8L5 15H15V8H5Z" fill="#5C5F62"/></svg>

<svg xmlns="http://www.w3.org/2000/svg" viewBox="0 0 20 20" fill="currentColor"><path fill-rule="evenodd" d="M7 2a1 1 0 0 1 1 1v1h4v-1a1 1 0 1 1 2 0v1h1a2 2 0 0 1 2 2v9a2 2 0 0 1-2 2h-10a2 2 0 0 1-2-2v-9a2 2 0 0 1 2-2h1v-1a1 1 0 0 1 1-1Zm-2 6v7h10v-7h-10Z"/></svg>
